src/public/img/landing/new/external-websites/upwork.svg

<svg width="103" height="28" viewBox="0 0 103 28" fill="none" xmlns="http://www.w3.org/2000/svg">
<g clip-path="url(#clip0_3628_19588)">
<path d="M28.5805 19.06C27.5352 19.0018 26.5191 18.6935 25.6177 18.161C24.7163 17.6285 23.9559 16.8874 23.4005 16C24.0705 10.66 26.0205 9 28.6005 9C31.1805 9 33.1405 11 33.1405 14C33.1405 17 31.1405 19 28.6005 19L28.5805 19.06ZM28.6005 5.66C26.7797 5.58622 24.991 6.15471 23.5469 7.2661C22.1028 8.37749 21.0953 9.96106 20.7005 11.74C19.8445 9.94658 19.1969 8.06094 18.7705 6.12H12.4005V14.02C12.4005 16.89 11.1005 19.02 8.55047 19.02C6.00047 19.02 4.55047 16.9 4.55047 14.02V6.12H0.890474V14.02C0.807409 16.2092 1.56197 18.3477 3.00047 20C3.70261 20.7645 4.56032 21.3698 5.51591 21.7751C6.47149 22.1805 7.50281 22.3765 8.54047 22.35C12.9505 22.35 16.0405 18.96 16.0405 14.11V8.77C16.7894 11.6435 18.0275 14.3666 19.7005 16.82L17.7405 28H21.4605L22.7505 20.08C23.1775 20.4477 23.6322 20.782 24.1105 21.08C25.3532 21.8649 26.7816 22.3065 28.2505 22.36H28.5905C29.6831 22.3714 30.7668 22.1615 31.7762 21.7431C32.7857 21.3247 33.7 20.7064 34.4642 19.9253C35.2284 19.1443 35.8267 18.2167 36.2231 17.1984C36.6194 16.1801 36.8056 15.0922 36.7705 14C36.796 12.9119 36.6025 11.8297 36.2014 10.8179C35.8004 9.806 35.2 8.8851 34.436 8.10988C33.672 7.33467 32.7599 6.72097 31.754 6.30526C30.7481 5.88955 29.6689 5.68032 28.5805 5.69" fill="black"/>
<path d="M81.2006 7.86V6.18H77.6006V21.81H81.2506V15.69C81.2506 11.92 81.5906 9.21 86.6506 9.56V6C84.2906 5.82 82.4506 6.31 81.2006 7.87" fill="black"/>
<path d="M55.9102 6.17L53.2702 17.11L50.4502 6.17H45.8102L42.9902 17.11L40.3502 6.17H36.6602L40.7102 21.82H45.0902L48.1302 10.71L51.1402 21.82H55.5202L59.8002 6.17H55.9102Z" fill="black"/>
<path d="M67.8205 19.07C65.2305 19.07 63.2905 17.02 63.2905 14.07C63.2905 11.12 65.2905 9.07 67.8205 9.07C70.3505 9.07 72.4005 11 72.4005 14C72.4005 17 70.4005 19 67.8605 19L67.8205 19.07ZM67.8605 5.65C66.7662 5.63461 65.6801 5.84114 64.6679 6.25712C63.6556 6.67309 62.7381 7.28988 61.9708 8.07026C61.2036 8.85064 60.6024 9.77841 60.2036 10.7976C59.8048 11.8167 59.6166 12.9061 59.6505 14C59.6121 15.0976 59.7951 16.1917 60.1887 17.2171C60.5822 18.2424 61.1782 19.178 61.9411 19.9681C62.704 20.7582 63.6182 21.3865 64.6292 21.8156C65.6402 22.2448 66.7272 22.466 67.8255 22.466C68.9238 22.466 70.0108 22.2448 71.0218 21.8156C72.0328 21.3865 72.947 20.7582 73.7099 19.9681C74.4728 19.178 75.0688 18.2424 75.4623 17.2171C75.8559 16.1917 76.0389 15.0976 76.0005 14C76.0274 12.9124 75.8351 11.8304 75.4352 10.8186C75.0353 9.80679 74.4359 8.88579 73.6726 8.11043C72.9094 7.33507 71.998 6.7212 70.9926 6.30538C69.9872 5.88956 68.9084 5.68028 67.8205 5.69" fill="black"/>
<path d="M91.8702 14.13H92.7102L97.8002 21.82H101.91L96.0602 13.29C97.4672 12.7098 98.6696 11.7237 99.5138 10.4574C100.358 9.19104 100.806 7.70193 100.8 6.18H97.1702C97.1702 9.55 94.5102 10.83 91.8702 10.83V0H88.2202V21.82H91.8602L91.8702 14.13Z" fill="black"/>
</g>
<defs>
<clipPath id="clip0_3628_19588">
<rect width="102" height="28" fill="white" transform="translate(0.400391)"/>
</clipPath>
</defs>
</svg>

<svg xmlns="http://www.w3.org/2000/svg" width="103" height="28" fill="none">
  <g fill="#000" clip-path="url(#a)">
    <path d="M28.58 19.06A6.54 6.54 0 0 1 23.4 16c.67-5.34 2.62-7 5.2-7s4.54 2 4.54 5-2 5-4.54 5l-.02.06Zm.02-13.4a7.77 7.77 0 0 0-7.9 6.08 25.997 25.997 0 0 1-1.93-5.62H12.4v7.9c0 2.87-1.3 5-3.85 5s-4-2.12-4-5v-7.9H.89v7.9A8.61 8.61 0 0 0 3 20a7.27 7.27 0 0 0 5.54 2.35c4.41 0 7.5-3.39 7.5-8.24V8.77a25.868 25.868 0 0 0 3.66 8.05L17.74 28h3.72l1.29-7.92c.427.368.882.702 1.36 1a8.32 8.32 0 0 0 4.14 1.28h.34A8.1 8.1 0 0 0 36.77 14a8.119 8.119 0 0 0-8.19-8.31M81.2 7.86V6.18h-3.6v15.63h3.65v-6.12c0-3.77.34-6.48 5.4-6.13V6c-2.36-.18-4.2.31-5.45 1.87m-25.29-1.7-2.64 10.94-2.82-10.94h-4.64l-2.82 10.94-2.64-10.94h-3.69l4.05 15.65h4.38l3.04-11.11 3.01 11.11h4.38L59.8 6.17h-3.89Zm11.91 12.9c-2.59 0-4.53-2.05-4.53-5s2-5 4.53-5c2.53 0 4.58 1.93 4.58 4.93s-2 5-4.54 5l-.04.07Zm.04-13.42A8.1 8.1 0 0 0 59.65 14 8.18 8.18 0 1 0 76 14a8.11 8.11 0 0 0-8.18-8.31m24.05 8.44h.84l5.09 7.69h4.11l-5.85-8.53a7.66 7.66 0 0 0 4.74-7.11h-3.63c0 3.37-2.66 4.65-5.3 4.65V0h-3.65v21.82h3.64l.01-7.69Z"/>
  </g>
  <defs>
    <clipPath id="a">
      <path fill="#fff" d="M.4 0h102v28H.4z"/>
    </clipPath>
  </defs>
</svg>
